!!!!SEGMENT: pl-kc--40102-iii-1-saf--002-046_zielenski-mikolaj--communiones-totius-anni-motteto-a-5-levavi-oculos-meos-in-montes.krn
!!!cenid: 16xx:1577
!!!COM: Zieleński, Mikołaj
!!!COM-rismID: pe30013481
!!!CDT: <1611->1611
!!!CNT: Polish
!!!GTL: Communiones totius anni
!!!OTL: Motteto a 5./Levavi oculos meos in montes
!!!OMV: 046
!!!PDT: 1611
!!!AGN: Sacred
!!!YEC: Copyright 2022 Narodowy Instytut Fryderyka Chopina (https://polishscores.org)
!!!YEM: License CC-BY-4.0 (https://creativecommons.org/licenses/by/4.0)
!!!SMS-siglum: PL-Kc
!!!SMS-shelfmark: 40102 III/1 Saf.
!!!SMS-shelfwork: 002-046 G
!!!SMS-variant:
!!!SMS-altvar:
!!!NIFC-rismSourceID: 990069887
!!!NIFC-rismChildID: 990069887
!!!NIFC-islandoraID: none
!!!URL-pdf-islandora:
!!!URL-scan: https://cyfrowe.mnk.pl/dlibra/publication/24235/edition/23926/content?ref=desc @EN{Scan on The National Museum in Krakow Website} @PL{Skany w portalu Biblioteka Cyfrowa Muzeum Narodowego w Krakowie}
!!!IIIF:
!!!ONB-nifc: UWAGA: str. 69-70. Numer w źródle: 54. Uwaga: W xml metrum 2/1 do źródłowego C| i odpowiednio 3/1 do 3/2
!!!AIN: 5 organ
!!!key: d:dor
**kern	**kern	**kern	**kern	**kern
*group1	*group1	*group1	*group1	*group1
*part5	*part4	*part3	*part2	*part1
*staff5	*staff4	*staff3	*staff2	*staff1
*I""Organo	*	*	*	*
*Iorgan	*Iorgan	*Iorgan	*Iorgan	*Iorgan
*ICklav	*ICklav	*ICklav	*ICklav	*ICklav
*clefF4	*clefC4	*clefC4	*clefC3	*clefC1
*k[b-]	*k[b-]	*k[b-]	*k[b-]	*k[b-]
*d:dor	*d:dor	*d:dor	*d:dor	*d:dor
*M2/1	*M2/1	*M2/1	*M2/1	*M2/1
*met(C|)	*met(C|)	*met(C|)	*met(C|)	*met(C|)
=1	=1	=1	=1	=1
!LO:TX:t=P:problem=all/middle&colon; global	!LO:TX:t=P:problem=all/middle&colon; global	!LO:TX:t=P:problem=all/middle&colon; global	!LO:TX:t=P:problem=all/middle&colon; global	!LO:TX:t=P:problem=all/middle&colon; global
!LO:TX:t=P:problem=all\middle&colon; global	!LO:TX:t=P:problem=all\middle&colon; global	!LO:TX:t=P:problem=all\middle&colon; global	!LO:TX:t=P:problem=all\middle&colon; global	!LO:TX:t=P:problem=all\middle&colon; global
!	!	!	!LO:TX:a:t=Leuaui oculos meos in montes.	!LO:TX:a:t=54. Motteto à 5.
00r	00r	00r	0r	1g
.	.	.	.	1dd
=2-	=2-	=2-	=2-	=2-
.	.	.	1d	2dd\
.	.	.	.	1dd
.	.	.	1g	.
.	.	.	.	2cc\
=3	=3	=3	=3	=3
00r	00r	0r	2g\	1b-
.	.	.	1g	.
.	.	.	.	2.a\
.	.	.	2f\	.
.	.	.	.	4b-\
=4-	=4-	=4-	=4-	=4-
.	.	1r	1e-X	4cc\
.	.	.	.	4g/
.	.	.	.	2.cc\
.	.	1G	2.d\	.
.	.	.	.	4b-\
.	.	.	.	4b-\
!	!	!	!LO:SIC:v:s:t=4e-	!
.	.	.	4eny\	8a\
.	.	.	.	8g/
=5	=5	=5	=5	=5
00r	1r	1d	4f\	2a\
.	.	.	4d\	.
.	.	.	2.g\	2b-\
.	1D	2d\	.	2.a\
.	.	.	8f#X\	.
.	.	.	8e\	.
!	!	!	!LO:SIC:v:s:t=2f#	!
.	.	1d\	2fny\	.
.	.	.	.	8g\
.	.	.	.	8a\
=6-	=6-	=6-	=6-	=6-
.	1G	.	2g\	2b-\
.	.	2c\	2e-X\	4g/
.	.	.	.	4a\
.	2G/	1B-	1d	4b-\
.	.	.	.	4cc\
.	2G/	.	.	4dd\
.	.	.	.	4b-\
=7	=7	=7	=7	=7
0r	2G/	2.A/	1a	4cc\
.	.	.	.	8b-\
.	.	.	.	8cc\
.	2F/	.	.	2.dd\
.	.	4B-\	.	.
.	1E-X	2c\	0g	.
.	.	.	.	4cc\
.	.	1G/	.	4cc\
.	.	.	.	8b-\
.	.	.	.	8a\
=8-	=8-	=8-	=8-	=8-
1GG	2.D/	.	.	1b-
.	.	2.d\	.	.
!	!LO:SIC:v:s:t=4E-	!	!	!
.	4Eny/	.	.	.
1D	2.F/	.	2r	1a
.	.	4e\	.	.
.	.	1f\	2d\	.
.	4E/	.	.	.
=9	=9	=9	=9	=9
2D/	4F/	.	1a	0r
.	4G/	.	.	.
1D	2.A/	1f	.	.
.	.	.	2a\	.
.	4B-\	.	.	.
2C/	2c\	2e\	1a\	.
=10-	=10-	=10-	=10-	=10-
1BB-	2d\	1d	.	2r
.	2D/	.	2g\	2g/
2.AA/	1A	1A	2f\	1cc
.	.	.	[y2e\	.
4BB-/	.	.	.	.
=11	=11	=11	=11	=11
!	!	!	!LO:N:xstem:cue	!
1C	0G	2r	4e\]	2cc\
.	.	.	4d\	.
.	.	2G/	4e\	1cc
.	.	.	4f\	.
1GG	.	1d	2g\	.
.	.	.	1g\	2b-\
=12-	=12-	=12-	=12-	=12-
1D	0r	2d\	.	2.a\
.	.	1d	2.f\	.
.	.	.	.	4b-\
1AA	.	.	.	2cc\
.	.	.	8e\	.
.	.	.	8d\	.
.	.	2c\	4e\	[y2a\
.	.	.	4f\	.
=13	=13	=13	=13	=13
!	!	!	!	!LO:N:xstem:cue
2D/	1r	1B-	2.d\	4a]
.	.	.	.	8g/
.	.	.	.	8f/
2GG/	.	.	.	2g/
.	.	.	4e\	.
!LO:TX:b:t=Partitura Nicolai Zielenski	!	!	!	!
1D	2r	2.A/	2.f\	2a\
.	2D/	.	.	4d/
.	.	4G/	4g\	4e/
=14-	=14-	=14-	=14-	=14-
2D/	1A	2.F/	2a\	4f/
.	.	.	.	4g/
1D	.	.	1f	2.a\
.	.	4E/	.	.
.	2A/	2D/	.	.
.	.	.	.	4b-\
2C/	[<2A/	2E/	2e\	4cc\
.	.	.	.	4c/
=15	=15	=15	=15	=15
1BB-	2A/]	2F/	2d\	2f/
.	2G/	4E/	2.d\	2g/
.	.	4D/	.	.
1AA	2F/	1A	.	1a
.	.	.	8c/	.
.	.	.	8B-/	.
.	2E/	.	2c/	.
=16	=16	=16	=16	=16
2.BB-/	2D/	2A/	1d	2r
.	2B-\	2.G/	.	1cc
8AA/	.	.	.	.
8GG/	.	.	.	.
1D	1A	.	2r	.
.	.	8F#X/	.	.
.	.	8E/	.	.
!	!	!LO:SIC:v:s:t=2F#/	!	!
.	.	2Fny/	2d\	2a\
=17	=17	=17	=17	=17
1.GG	2G/	1G	2d\	2b-\
.	1d	.	2G/	2b-\
.	.	1r	2B-/	1g
2.G\	2d\	.	2B-/	.
=18-	=18-	=18-	=18-	=18-
.	2c\	2r	1A	1r
!LO:TX:b:t=I 3	!	!	!	!
8F#X\	.	.	.	.
8E\	.	.	.	.
!LO:SIC:v:s:t=2F#\	!	!	!	!
2Fny\	2A/	1d	.	.
[<1G	1B-	.	1r	2r
.	.	2G/	.	[<2dd\
*custos:G	*custos:G	*custos:B-	*custos:d	*custos:dd
!LO:PB:g=original	!LO:PB:g=original	!LO:PB:g=original	!LO:PB:g=original	!LO:PB:g=original
=19	=19	=19	=19	=19
1G]	2r	2B-\	1.d	2dd\]
.	1G	2B-\	.	2g/
1D	.	1A	.	2a\
.	2F#X/	.	2A/	2a\
=20-	=20-	=20-	=20-	=20-
2r	2.G/	1d	1.B-	4g/
.	.	.	.	4a\
1G	.	.	.	4b-\
.	4A/	.	.	4cc\
.	2B-\	2r	.	2dd\
2D/	4Fny/	[<2f\	2B-/	2dd\
.	4G/	.	.	.
=21	=21	=21	=21	=21
2.F\	4A/	2f\]	2A/	1.cc
.	4B-\	.	.	.
.	1c	2F/	2a\	.
4F\	.	.	.	.
2E-X\	.	2G/	2g\	.
2D/	2F/	1B-\	2f\	2dd\
=22-	=22-	=22-	=22-	=22-
1C	2G/	.	2.e-X\	2ee-X\
!	!	!	!	!LO:SIC:v:s:t=2ee-\
.	2c\	2A/	.	2eeny\
.	.	.	8d\	.
.	.	.	8c\	.
2.BB-/	2F/	2B-\	2f\	1dd
.	2B-\	[<2F/	4d\	.
4C/	.	.	4e-\	.
=23	=23	=23	=23	=23
*	*lig	*	*	*
2D/	1A	2F/]	4f\	1dd
.	.	.	4g\	.
2D/	.	2f\	2.a\	.
1GG	1B-	2.d\	.	1r
.	.	.	8g\	.
.	.	.	8f\	.
.	.	.	2g\	.
.	.	4e\	.	.
*	*Xlig	*	*	*
=24-	=24-	=24-	=24-	=24-
1D	1A	2f\	2a\	2r
.	.	4d\	4f\	2a\
.	.	2d\	2f\	.
1r	1r	.	.	2.dd\
.	.	2B-\	4d\	.
.	.	.	2g\	.
.	.	[<4G/	.	4dd\
=25	=25	=25	=25	=25
0r	0r	4G/]	4g\	2b-\
.	.	2e-X\	2g\	.
.	.	.	.	2cc\
.	.	4c\	4g\	.
.	.	2d\	2f\	2a\
.	.	2B-\	2.g\	2dd\
=26-	=26-	=26-	=26-	=26-
1r	2r	2c\	.	2cc\
.	.	.	8f#X\	.
.	.	.	8e\	.
.	2D/	2d\	2f#X\	2a\
2r	2.G/	2.d\	2.g\	1b-
2GG/	.	.	.	.
.	4G/	4G/	4d\	.
=27	=27	=27	=27	=27
2.D/	2F/	2A/	2d\	1a
.	2A/	2d\	2.f\	.
4D/	.	.	.	.
2AA/	2.A/	2.c\	.	0r
.	.	.	2e\	.
2C/	.	.	.	.
.	4G/	4c\	4e\	.
=28-	=28-	=28-	=28-	=28-
2GG/	2G/	2B-\	2d\	.
2E-X\	2.G/	4A/	2c/	.
.	.	4G/	.	.
2.D/	.	2A/	2d\	2r
!	!LO:TX:a:t=P:problem=# above	!	!	!
.	8F#X/	.	.	.
.	8E/	.	.	.
!	!LO:SIC:v:s:t=2F#/	!	!	!
.	2Fny/	2A/	2d\	2a\
4D/	.	.	.	.
=29	=29	=29	=29	=29
0GG	2G/	1G	1d	2.b-\
.	2G/	.	.	.
.	.	.	.	4cc\
!	!	!LO:N:vis=1r	!	!
.	2.B-\	2r	2r	2dd\
.	.	2G/	2d\	2b-\
.	4c\	.	.	.
=30-	=30-	=30-	=30-	=30-
0r	2d\	1D	2.f\	2a\
.	2B-\	.	.	2dd\
.	.	.	4g\	.
.	2A/	2r	2a\	2cc\
.	[y2d\	2D/	2f\	[y2b-\
=31	=31	=31	=31	=31
!	!LO:N:xstem:cue	!	!	!LO:N:xstem:cue
1r	4d]	2.F/	2f\	4b-]
.	4c\	.	.	4a\
.	2f\	.	2a\	2.dd\
.	.	4G/	.	.
2r	1e	1A	2.a\	.
.	.	.	.	8cc#X\
.	.	.	.	8b-\
!	!	!	!	!LO:SIC:v:s:t=2cc#\
2AA/	.	.	.	2ccny\
.	.	.	4g\	.
=32-	=32-	=32-	=32-	=32-
2.BB-/	2.d\	1D	4f\	0dd
.	.	.	4e\	.
.	.	.	1f	.
4C/	4c\	.	.	.
2D/	4B-\	2r	.	.
.	4A/	.	.	.
2BB-/	2.d\	2D/	2g\	.
=33	=33	=33	=33	=33
1C	.	2.G/	1e-X	2r
.	8c\	.	.	.
.	8B-\	.	.	.
.	2c\	.	.	1g
.	.	4A/	.	.
[<1G	1d	2B-\	[<1d	.
.	.	2G/	.	[<2b-\
=34	=34	=34	=34	=34
2G\]	0r	2B-\	1d]	4b-\]
.	.	.	.	4cc\
2F\	.	2A/	.	1dd
2.G\	.	2.B-\	2r	.
.	.	.	2d\	[<2b-\
8F\	.	4c\	.	.
8E\	.	.	.	.
=35	=35	=35	=35	=35
2D/	0r	2.d\	2.f\	2b-]
1F	.	.	.	2a\
.	.	8c\	4g\	.
.	.	8B-\	.	.
.	.	2A/	2a\	2cc\
2G\	.	2.d\	2g\	2b-\
=36-	=36-	=36-	=36-	=36-
1A	1r	.	2f\	1a
.	.	8c#X\	.	.
.	.	8B-\	.	.
!	!	!LO:SIC:v:s:t=2c#\	!	!
.	.	2cny\	2e\	.
1D	2r	1d	2f\	2a\
.	2A/	.	[<2f\	2dd\
=37	=37	=37	=37	=37
2r	2.B-\	1d	2f\]	2dd\
2GG/	.	.	1g	2.b-\
.	4c\	.	.	.
2.BB-/	2d\	1r	.	.
.	.	.	.	4a\
.	2B-\	.	2d\	2g\
4C/	.	.	.	.
=38-	=38-	=38-	=38-	=38-
2D/	2A/	2r	2.f\	1d
2BB-/	1d	2D/	.	.
.	.	.	4g\	.
1AA	.	2.E/	1a	1r
.	2c\	.	.	.
.	.	4F/	.	.
=39	=39	=39	=39	=39
1GG	2.B-\	2G/	1d	2r
.	.	2D/	.	2g/
.	4A/	.	.	.
2r	4G/	1E-X	1g	2.b-\
.	4A/	.	.	.
2GG/	2.B-\	.	.	.
.	.	.	.	4cc\
=40-	=40-	=40-	=40-	=40-
2.BB-/	.	1D	1f	2dd\
.	4c\	.	.	.
.	1d	.	.	2.b-\
4C/	.	.	.	.
2D/	.	1r	2r	.
.	.	.	.	2a\
2AA/	[<2c\	.	[<2e\	.
.	.	.	.	[<4cc\
=41	=41	=41	=41	=41
2C/	2c\]	2r	2e\]	4cc\]
.	.	.	.	2g/
2GG/	1B-	2D/	1d	.
.	.	.	.	2b-\
1D	.	2.F/	.	.
.	.	.	.	4f/
.	2A/	.	2f\	1a\
.	.	4E/	.	.
=42-	=42-	=42-	=42-	=42-
2.BB-/	1B-	4F/	0d	.
.	.	4D/	.	.
.	.	2B-\	.	2.g/
8AA/	.	.	.	.
8GG/	.	.	.	.
1D	2r	2A/	.	.
.	.	.	.	8f#X/
.	.	.	.	8e/
!	!	!	!	!LO:SIC:v:s:t=2f#/
.	2A/	[<2d\	.	2fny/
*custos:GG	*custos:B-	*custos:d	*custos:d	*custos:g
!LO:LB:g=original	!LO:LB:g=original	!LO:LB:g=original	!LO:LB:g=original	!LO:LB:g=original
=43	=43	=43	=43	=43
1GG	2.B-\	2d\]	1d	0g
.	.	2G/	.	.
.	4c\	.	.	.
2r	2d\	2.B-\	2r	.
2GG/	2d\	.	2d\	.
.	.	4A/	.	.
=44-	=44-	=44-	=44-	=44-
2.C/	1.c	4G/	2.e-X\	2r
.	.	4F/	.	.
.	.	1G	.	2g/
4D/	.	.	4d\	.
2E-X\	.	.	2c/	2.cc\
[<2C/	2e-X\	2G/	2f\	.
.	.	.	.	4dd\
=45	=45	=45	=45	=45
2C/]	2c\	2G/	1.g	2ee-X\
2C/	2.c\	2e-X\	.	2cc\
2.G\	.	1d	.	1dd
!	!LO:N:acc=#	!	!	!
.	8Bn\	.	.	.
.	8A\	.	.	.
!	!LO:SIC:v:s:t=2Bn\	!	!	!
.	2B-y\	.	2.f\	.
4F\	.	.	.	.
=46-	=46-	=46-	=46-	=46-
2.E-X\	2c\	2e-X\	.	1.g
.	.	.	4e\	.
.	1G	1c	1e-X	.
4D/	.	.	.	.
2C/	.	.	.	.
2C/	2G/	[<2e-X\	2c/	2g/
=47	=47	=47	=47	=47
0C	1G	2e-\]	0g	2.ee-X\
!	!	!LO:SIC:v:s:t=1e-	!	!
.	.	1eny	.	.
.	.	.	.	4dd\
.	1.c	.	.	4cc\
.	.	.	.	4g/
!	!	!LO:SIC:v:s:t=2e-	!	!
.	.	2e\	.	2cc\
=48-	=48-	=48-	=48-	=48-
00G\	.	00d\	00g\	00dd\
!	!LO:N:acc=#	!	!	!
.	4Bn\	.	.	.
.	4A/	.	.	.
!	!LO:N:acc=#	!	!	!
.	[1Bnl\	.	.	.
=49-	=49-	=49-	=49-	=49-
.	0Bn]	.	.	.
==	==	==	==	==
*-	*-	*-	*-	*-
!!!system-decoration: g1
!!!RDF**kern: l = terminal long
!!!RDF**kern: > = above
!!!RDF**kern: < = below
!!!ENC: Andrzej Gręziak
!!!END: 2021-12-21
!!!EED: Jędrzej Mróz
!!!EEV: 2021-12-27
